X:797
T:Marni Swanson of the Grey Coast
C:Andy Thorburn
B:The Nineties Collection
Z:Nigel Gatherer
M:6/4
L:1/8
K:G
GBdBBG AGGEED | GBdBBG edef g2 | GBdBBG AGGEED | G2F G2A G6 |
Bddffg fddeBA | Bddffg fdB e2d | Bddffg fddeBA | e2d B2A e2d B2A |
Bdfffg fdBeBA | Bdfffg fdB e2d | Bddffg fdBeBA | e2d B2A G2E E2D |
E6 D6 |]
<end>
<start>
